images/about/about-android.svg

<svg fill="none" height="150" viewBox="0 0 250 150" width="250" xmlns="http://www.w3.org/2000/svg"><g fill="#000"><path d="m14.7063 72.9152c-5.0155 0-8.39709 3.9448-8.39709 9.0158 0 5.0701 3.3816 9.0167 8.39709 9.0167 5.0156-.0001 8.3972-3.9466 8.3972-9.0167-.0001-5.071-3.3816-9.0158-8.3972-9.0158zm-1.1272-5.635c4.0576 0 7.4392 2.0851 9.0167 4.3395v-3.7764h6.1982v28.1736h-4.2103c-1.0979 0-1.9879-.8901-1.9879-1.988v-1.7857c-1.5775 2.2544-4.9591 4.3377-9.0167 4.3377-7.71839 0-13.57909318-6.5921-13.5791-14.6499s5.86069-14.6508 13.5791-14.6508z"/><path d="m35.8323 67.8435h6.2001v3.832c1.6885-2.8176 4.9018-4.3951 8.5645-4.3951 6.5357 0 10.7616 4.6207 10.7616 11.776v16.9607h-4.2103c-1.0979 0-1.9879-.89-1.9879-1.9879v-13.9575c0-4.4524-2.2544-7.1562-5.8598-7.1562-4.1131 0-7.2681 3.2114-7.2681 9.2395v13.8621h-4.2121c-1.0979 0-1.988-.89-1.988-1.9879z"/><path d="m80.9703 72.9153c-5.0137 0-8.3953 3.9447-8.3953 9.0157 0 5.0701 3.3816 9.0167 8.3953 9.0167s8.3953-3.9466 8.3953-9.0167c0-5.071-3.3816-9.0157-8.3953-9.0157zm-1.1272-5.6351c4.0575 0 7.4382 2.0852 9.0157 4.3395v-17.8623h6.1973v42.2595h-4.2094c-1.0978 0-1.9879-.89-1.9879-1.9879v-1.7858c-1.5775 2.2544-4.9582 4.3377-9.0157 4.3377-7.7203 0-13.5801-6.5921-13.5801-14.6499s5.8598-14.6508 13.5801-14.6508z"/><path d="m102.096 67.8435h6.198v5.0156c1.07-3.2124 4.226-5.2976 7.44-5.2976.787 0 1.577.0573 2.421.2266v6.3674c-1.07-.3393-1.971-.5086-3.098-.5086-3.55 0-6.763 2.9868-6.763 8.6219v13.7483h-4.21c-1.098 0-1.988-.89-1.988-1.9879z"/><path d="m134.869 90.8344c4.958-.0001 8.453-3.8893 8.453-8.903 0-5.0146-3.495-8.9029-8.453-8.9029-5.015 0-8.508 3.8883-8.508 8.9029 0 5.0137 3.493 8.903 8.508 8.903zm0 5.746c-8.34 0-14.763-6.4802-14.763-14.649 0-8.1706 6.423-14.6517 14.763-14.6517s14.763 6.4811 14.763 14.6517c0 8.1688-6.423 14.649-14.763 14.649z"/><path d="m154.657 67.8434h6.196v28.1735h-4.208c-1.098 0-1.988-.89-1.988-1.9879zm3.097-6.1409c-2.255 0-4.169-1.8587-4.169-4.1704 0-2.2544 1.914-4.113 4.169-4.113 2.309 0 4.114 1.8586 4.114 4.113 0 2.3117-1.805 4.1704-4.114 4.1704z"/><path d="m180.655 72.9151c-5.014 0-8.396 3.9448-8.396 9.0158 0 5.0701 3.382 9.0167 8.396 9.0167 5.015 0 8.397-3.9466 8.397-9.0167 0-5.071-3.382-9.0158-8.397-9.0158zm-1.127-5.635c4.057 0 7.439 2.0851 9.016 4.3395v-17.8623h6.198v42.2595h-4.21c-1.098 0-1.988-.8901-1.988-1.988v-1.7857c-1.577 2.2544-4.959 4.3377-9.016 4.3377-7.719 0-13.58-6.5921-13.58-14.6499s5.861-14.6508 13.58-14.6508z"/><path d="m205.517 71.4275h-6.063v-3.739h6.063v-7.877h3.967v7.877h8.272v3.739h-8.272v16.3761c0 3.4566 1.53 4.8155 4.703 4.8155 1.133 0 2.663-.2262 3.569-.6232v3.5701c-1.303.5096-2.663.7368-4.192.7368-4.817 0-8.047-2.7771-8.047-8.1594z"/><path d="m250 67.6885-13.259 28.3308h-3.117l-13.258-28.3308h4.419l10.37 22.4942 10.369-22.4942z"/></g></svg>

<svg width="250" height="150" viewBox="0 0 250 150" fill="none" xmlns="http://www.w3.org/2000/svg">
<path d="M14.7063 72.9152C9.6908 72.9152 6.30921 76.86 6.30921 81.931C6.30921 87.0011 9.69081 90.9477 14.7063 90.9477C19.7219 90.9476 23.1035 87.0011 23.1035 81.931C23.1034 76.86 19.7219 72.9152 14.7063 72.9152ZM13.5791 67.2802C17.6367 67.2802 21.0183 69.3653 22.5958 71.6197L22.5958 67.8433H28.794L28.794 96.0169H24.5837C23.4858 96.0169 22.5958 95.1268 22.5958 94.0289V92.2432C21.0183 94.4976 17.6367 96.5809 13.5791 96.5809C5.86071 96.5809 6.81734e-06 89.9888 0 81.931C-6.81733e-06 73.8732 5.86069 67.2802 13.5791 67.2802Z" fill="black"/>
<path d="M35.8323 67.8435H42.0324V71.6755C43.7209 68.8579 46.9342 67.2804 50.5969 67.2804C57.1326 67.2804 61.3585 71.9011 61.3585 79.0564L61.3585 96.0171H57.1482C56.0503 96.0171 55.1603 95.1271 55.1603 94.0292L55.1603 80.0717C55.1603 75.6193 52.9059 72.9155 49.3005 72.9155C45.1874 72.9155 42.0324 76.1269 42.0324 82.155L42.0324 96.0171L37.8203 96.0171C36.7224 96.0171 35.8323 95.1271 35.8323 94.0292L35.8323 67.8435Z" fill="black"/>
<path d="M80.9703 72.9153C75.9566 72.9153 72.575 76.86 72.575 81.931C72.575 87.0011 75.9566 90.9477 80.9703 90.9477C85.984 90.9477 89.3656 87.0011 89.3656 81.931C89.3656 76.86 85.984 72.9153 80.9703 72.9153ZM79.8431 67.2802C83.9006 67.2802 87.2813 69.3654 88.8588 71.6197L88.8588 53.7574H95.0561L95.0561 96.0169H90.8467C89.7489 96.0169 88.8588 95.1269 88.8588 94.029V92.2432C87.2813 94.4976 83.9006 96.5809 79.8431 96.5809C72.1228 96.5809 66.263 89.9888 66.263 81.931C66.263 73.8732 72.1228 67.2802 79.8431 67.2802Z" fill="black"/>
<path d="M102.096 67.8435H108.294V72.8591C109.364 69.6467 112.52 67.5615 115.734 67.5615C116.521 67.5615 117.311 67.6188 118.155 67.7881V74.1555C117.085 73.8162 116.184 73.6469 115.057 73.6469C111.507 73.6469 108.294 76.6337 108.294 82.2688L108.294 96.0171H104.084C102.986 96.0171 102.096 95.1271 102.096 94.0292L102.096 67.8435Z" fill="black"/>
<path d="M134.869 90.8344C139.827 90.8343 143.322 86.9451 143.322 81.9314C143.322 76.9168 139.827 73.0285 134.869 73.0285C129.854 73.0285 126.361 76.9168 126.361 81.9314C126.361 86.9451 129.854 90.8344 134.869 90.8344ZM134.869 96.5804C126.529 96.5804 120.106 90.1002 120.106 81.9314C120.106 73.7608 126.529 67.2797 134.869 67.2797C143.209 67.2797 149.632 73.7608 149.632 81.9314C149.632 90.1002 143.209 96.5804 134.869 96.5804Z" fill="black"/>
<path d="M154.657 67.8434L160.853 67.8434V96.0169H156.645C155.547 96.0169 154.657 95.1269 154.657 94.029L154.657 67.8434ZM157.754 61.7025C155.499 61.7025 153.585 59.8438 153.585 57.5321C153.585 55.2777 155.499 53.4191 157.754 53.4191C160.063 53.4191 161.868 55.2777 161.868 57.5321C161.868 59.8438 160.063 61.7025 157.754 61.7025Z" fill="black"/>
<path d="M180.655 72.9151C175.641 72.9151 172.259 76.8599 172.259 81.9309C172.259 87.001 175.641 90.9476 180.655 90.9476C185.67 90.9476 189.052 87.001 189.052 81.9309C189.052 76.8599 185.67 72.9151 180.655 72.9151ZM179.528 67.2801C183.585 67.2801 186.967 69.3652 188.544 71.6196V53.7573H194.742L194.742 96.0168H190.532C189.434 96.0168 188.544 95.1267 188.544 94.0288V92.2431C186.967 94.4975 183.585 96.5808 179.528 96.5808C171.809 96.5808 165.948 89.9887 165.948 81.9309C165.948 73.8731 171.809 67.2801 179.528 67.2801Z" fill="black"/>
<path d="M205.517 71.4275H199.454V67.6885H205.517V59.8115H209.484V67.6885H217.756V71.4275H209.484V87.8036C209.484 91.2602 211.014 92.6191 214.187 92.6191C215.32 92.6191 216.85 92.3929 217.756 91.9959V95.566C216.453 96.0756 215.093 96.3028 213.564 96.3028C208.747 96.3028 205.517 93.5257 205.517 88.1434V71.4275Z" fill="black"/>
<path d="M250 67.6885L236.741 96.0193H233.624L220.366 67.6885H224.785L235.155 90.1827L245.524 67.6885H250Z" fill="black"/>
</svg>
